icons/measure-building-height-top-shadow-32-f.svg

<svg id="icons" xmlns="http://www.w3.org/2000/svg" viewBox="0 0 32 32"><title>measure-building-height-top-shadow-32-f</title><path d="M17.084,5.11621l-1.05859.56641.37988-2.47168,2.26661,1.05664-1.0586.56445,12.291,21.67963,1.05859-.56635L30.584,28.417l-2.26757-1.05658L29.375,26.7959ZM32,31v1H0V31H1V0H15V31ZM7,25H4v3H7Zm0-7H4v3H7Zm0-7H4v3H7ZM7,4H4V7H7Zm5,21H9v3h3Zm0-7H9v3h3Zm0-7H9v3h3Zm0-7H9V7h3Z"/></svg>

<svg xmlns="http://www.w3.org/2000/svg" viewBox="0 0 32 32"><path d="M17.084 5.116l-1.059.567.38-2.472 2.267 1.057-1.059.564 12.291 21.68 1.059-.567-.379 2.472-2.268-1.057 1.059-.564zM32 31v1H0v-1h1V0h14v31zM7 25H4v3h3zm0-7H4v3h3zm0-7H4v3h3zm0-7H4v3h3zm5 21H9v3h3zm0-7H9v3h3zm0-7H9v3h3zm0-7H9v3h3z"/></svg>
